optimized/24/outline/audio.svg

<svg viewBox="0 0 24 24" xmlns="http://www.w3.org/2000/svg" fill="currentColor" data-slot="icon">
  <path d="M9.4502 20V4C9.4502 3.58579 9.78598 3.25 10.2002 3.25C10.6143 3.25011 10.9502 3.58585 10.9502 4V20C10.9502 20.4141 10.6143 20.7499 10.2002 20.75C9.78598 20.75 9.4502 20.4142 9.4502 20ZM16.6504 17.333V5.77734C16.6506 5.36333 16.9863 5.02734 17.4004 5.02734C17.8143 5.02755 18.1502 5.36346 18.1504 5.77734V17.333C18.1504 17.7471 17.8144 18.0828 17.4004 18.083C16.9862 18.083 16.6504 17.7472 16.6504 17.333ZM5.84961 16.4443V6.66699C5.84961 6.25291 6.18558 5.9172 6.59961 5.91699C7.01382 5.91699 7.34961 6.25278 7.34961 6.66699V16.4443C7.34961 16.8585 7.01382 17.1943 6.59961 17.1943C6.18558 17.1941 5.84961 16.8584 5.84961 16.4443ZM13.0498 14.667V8.44434C13.0499 8.03024 13.3857 7.69444 13.7998 7.69434C14.214 7.69434 14.5497 8.03017 14.5498 8.44434V14.667C14.5496 15.0811 14.2139 15.417 13.7998 15.417C13.3858 15.4169 13.05 15.081 13.0498 14.667ZM2.25 12.8887V10.2227C2.25 9.80844 2.58579 9.47266 3 9.47266C3.41421 9.47266 3.75 9.80844 3.75 10.2227V12.8887C3.75 13.3029 3.41421 13.6387 3 13.6387C2.58579 13.6387 2.25 13.3029 2.25 12.8887ZM20.25 12.8887V10.2227C20.25 9.80844 20.5858 9.47266 21 9.47266C21.4142 9.47266 21.75 9.80844 21.75 10.2227V12.8887C21.75 13.3029 21.4142 13.6387 21 13.6387C20.5858 13.6387 20.25 13.3029 20.25 12.8887Z"/>
</svg>

<svg xmlns="http://www.w3.org/2000/svg" viewBox="0 0 24 24" fill="currentColor" data-slot="icon">
  <path d="M9.45 20V4a.75.75 0 1 1 1.5 0v16a.75.75 0 0 1-1.5 0Zm7.2-2.667V5.777a.75.75 0 0 1 1.5 0v11.556a.75.75 0 0 1-1.5 0Zm-10.8-.889V6.667a.75.75 0 0 1 1.5 0v9.777a.75.75 0 0 1-1.5 0Zm7.2-1.777V8.444a.75.75 0 0 1 1.5 0v6.223a.75.75 0 0 1-1.5 0Zm-10.8-1.778v-2.666a.75.75 0 1 1 1.5 0v2.666a.75.75 0 0 1-1.5 0Zm18 0v-2.666a.75.75 0 1 1 1.5 0v2.666a.75.75 0 0 1-1.5 0Z"/>
</svg>
